X: 37
T: Planxty Fanny Powers
T: Fannuidh de Paor
T: Mrs. Trench
R: waltz, jig
C: O'Carolan
B: O'Neill's 673
Z: 1997 by John Chambers <jc:trillian.mit.edu>
N: "Lively"
N: Originally a lively jig, but often played as a waltz.
N: Mrs. Trench was Miss Fanny Powers' (or Fannuidh de Paor's) married name,
N: so it is likely that O'Carolan got the gig to play at her wedding.
M: 6/8
L: 1/8
K: A
   E \
| "A"A2E ABc | "D"d2c "E7"B2A | G2F EFE | G2A B2d |\
| "A"cBA cde | "D"f2B "Bm"B2A | "E7"GFE EFG | "A"A3- A2 :|
|: e \
| "A"ec/d/e ec/d/e | "F#m"AcA AcA | "D"fd/e/f fd/e/f | "Bm"BdB BdB |\
| "A"cde "D"fga | "E7"gab "A"efe | cBA "E7"BcB | "A"A3- A2 :|

%%sep 1 1 500

